src/lib/packages/icons/src/assets/line/face-tired.svg

<svg width="24" height="24" viewBox="0 0 24 24" fill="none" xmlns="http://www.w3.org/2000/svg">
<path d="M15.48 18.75C15.32 18.75 15.15 18.72 15 18.66C12.98 17.85 11.03 17.85 9.01001 18.66C8.56001 18.84 8.04999 18.76 7.67999 18.44C7.32999 18.14 7.18003 17.68 7.28003 17.24C7.79003 15.03 9.73 13.49 12 13.49C14.27 13.49 16.21 15.03 16.72 17.24C16.82 17.68 16.67 18.14 16.32 18.44C16.08 18.64 15.78 18.75 15.48 18.75ZM12 14.98C10.6 14.98 9.38001 15.83 8.89001 17.09C10.96 16.37 13.05 16.37 15.11 17.09C14.62 15.83 13.4 14.98 12 14.98ZM16.67 11.33C16.86 10.96 16.71 10.51 16.33 10.32L15.67 9.99001L16.33 9.66C16.7 9.47 16.85 9.01999 16.67 8.64999C16.48 8.27999 16.03 8.13 15.66 8.31L13.66 9.31C13.41 9.44 13.24 9.7 13.24 9.98C13.24 10.26 13.4 10.52 13.66 10.65L15.66 11.65C15.77 11.7 15.88 11.73 15.99 11.73C16.27 11.73 16.53 11.58 16.66 11.32L16.67 11.33ZM8.34003 11.67L10.34 10.67C10.59 10.54 10.75 10.28 10.75 10C10.75 9.72 10.59 9.46 10.33 9.33L8.33002 8.33C7.96002 8.15 7.51001 8.3 7.32001 8.67C7.13001 9.04 7.27997 9.48999 7.65997 9.67999L8.32001 10.01L7.65997 10.34C7.28997 10.53 7.14002 10.98 7.33002 11.35C7.46002 11.61 7.73 11.76 8 11.76C8.11 11.76 8.23002 11.73 8.33002 11.68L8.34003 11.67ZM12 22.75C6.07 22.75 1.25 17.93 1.25 12C1.25 6.07 6.07 1.25 12 1.25C17.93 1.25 22.75 6.07 22.75 12C22.75 17.93 17.93 22.75 12 22.75ZM12 2.75C6.9 2.75 2.75 6.9 2.75 12C2.75 17.1 6.9 21.25 12 21.25C17.1 21.25 21.25 17.1 21.25 12C21.25 6.9 17.1 2.75 12 2.75Z" fill="currentColor"/>
</svg>

<svg xmlns="http://www.w3.org/2000/svg" width="24" height="24" fill="none"><path fill="currentColor" d="M15.48 18.75c-.16 0-.33-.03-.48-.09-2.02-.81-3.97-.81-5.99 0-.45.18-.96.1-1.33-.22-.35-.3-.5-.76-.4-1.2A4.817 4.817 0 0 1 12 13.49c2.27 0 4.21 1.54 4.72 3.75.1.44-.05.9-.4 1.2-.24.2-.54.31-.84.31ZM12 14.98c-1.4 0-2.62.85-3.11 2.11 2.07-.72 4.16-.72 6.22 0A3.322 3.322 0 0 0 12 14.98Zm4.67-3.65c.19-.37.04-.82-.34-1.01l-.66-.33.66-.33c.37-.19.52-.64.34-1.01a.763.763 0 0 0-1.01-.34l-2 1a.77.77 0 0 0-.42.67c0 .28.16.54.42.67l2 1a.742.742 0 0 0 1-.33l.01.01Zm-8.33.34 2-1a.76.76 0 0 0 .41-.67c0-.28-.16-.54-.42-.67l-2-1a.763.763 0 0 0-1.01.34c-.19.37-.04.82.34 1.01l.66.33-.66.33a.75.75 0 0 0 .67 1.34l.01-.01ZM12 22.75C6.07 22.75 1.25 17.93 1.25 12S6.07 1.25 12 1.25 22.75 6.07 22.75 12 17.93 22.75 12 22.75Zm0-20C6.9 2.75 2.75 6.9 2.75 12S6.9 21.25 12 21.25s9.25-4.15 9.25-9.25S17.1 2.75 12 2.75Z"/></svg>
